X:1689
T:Bobby Casey's2
R:Reel
S:Bobby Casey
M:4/4
L:1/8
K:D
DFAB ~B2  AB | d2 fd edBA | DFAB ~B2 AB |  df ~f2 edBA |
DFAB ~B2 AB | d3 f ee{f}eg | fgaf g2 fe | defd edBA :|
d3 g eA ~A2 | defg afge | d3 g eA ~A2 | gB ~B2 dBAB |
d2 fd efge | d2 fd edBd | ABdf ef{g}fg | afeg fd{e}dB :|
%  ABC2Win Version 2.1 3/18/97


